Sources/LumoKit/Resources/StarterLooks/evening-cinema.cube
# Original Lumo starter Look: Evening Cinema
TITLE "Evening Cinema"
LUT_3D_SIZE 3
0.040000 0.030000 0.090000
0.460000 0.030000 0.090000
0.880000 0.030000 0.090000
0.055000 0.420000 0.105000
0.475000 0.420000 0.105000
0.895000 0.420000 0.105000
0.070000 0.810000 0.120000
0.490000 0.810000 0.120000
0.910000 0.810000 0.120000
0.040000 0.055000 0.520000
0.460000 0.055000 0.520000
0.880000 0.055000 0.520000
0.055000 0.445000 0.535000
0.475000 0.445000 0.535000
0.895000 0.445000 0.535000
0.070000 0.835000 0.550000
0.490000 0.835000 0.550000
0.910000 0.835000 0.550000
0.040000 0.080000 0.950000
0.460000 0.080000 0.950000
0.880000 0.080000 0.950000
0.055000 0.470000 0.965000
0.475000 0.470000 0.965000
0.895000 0.470000 0.965000
0.070000 0.860000 0.980000
0.490000 0.860000 0.980000
0.910000 0.860000 0.980000
