Sources/LumoKit/Resources/StarterLooks/muted-film.cube
# Original Lumo starter Look: Muted Film
TITLE "Muted Film"
LUT_3D_SIZE 3
0.060000 0.050000 0.050000
0.490000 0.065000 0.050000
0.920000 0.080000 0.050000
0.075000 0.460000 0.070000
0.505000 0.475000 0.070000
0.935000 0.490000 0.070000
0.090000 0.870000 0.090000
0.520000 0.885000 0.090000
0.950000 0.900000 0.090000
0.060000 0.050000 0.460000
0.490000 0.065000 0.460000
0.920000 0.080000 0.460000
0.075000 0.460000 0.480000
0.505000 0.475000 0.480000
0.935000 0.490000 0.480000
0.090000 0.870000 0.500000
0.520000 0.885000 0.500000
0.950000 0.900000 0.500000
0.060000 0.050000 0.870000
0.490000 0.065000 0.870000
0.920000 0.080000 0.870000
0.075000 0.460000 0.890000
0.505000 0.475000 0.890000
0.935000 0.490000 0.890000
0.090000 0.870000 0.910000
0.520000 0.885000 0.910000
0.950000 0.900000 0.910000
