Sources/LumoKit/Resources/StarterLooks/soft-mono.cube
# Original Lumo starter Look: Soft Mono
TITLE "Soft Mono"
LUT_3D_SIZE 3
0.080000 0.080000 0.080000
0.169292 0.169292 0.169292
0.258584 0.258584 0.258584
0.380384 0.380384 0.380384
0.469676 0.469676 0.469676
0.558968 0.558968 0.558968
0.680768 0.680768 0.680768
0.770060 0.770060 0.770060
0.859352 0.859352 0.859352
0.110324 0.110324 0.110324
0.199616 0.199616 0.199616
0.288908 0.288908 0.288908
0.410708 0.410708 0.410708
0.500000 0.500000 0.500000
0.589292 0.589292 0.589292
0.711092 0.711092 0.711092
0.800384 0.800384 0.800384
0.889676 0.889676 0.889676
0.140648 0.140648 0.140648
0.229940 0.229940 0.229940
0.319232 0.319232 0.319232
0.441032 0.441032 0.441032
0.530324 0.530324 0.530324
0.619616 0.619616 0.619616
0.741416 0.741416 0.741416
0.830708 0.830708 0.830708
0.920000 0.920000 0.920000
