Sources/LumoKit/Resources/StarterLooks/warm-slide.cube
# Original Lumo starter Look: Warm Slide
TITLE "Warm Slide"
LUT_3D_SIZE 3
0.040000 0.030000 0.020000
0.500000 0.040000 0.020000
0.960000 0.050000 0.020000
0.065000 0.465000 0.035000
0.525000 0.475000 0.035000
0.985000 0.485000 0.035000
0.090000 0.900000 0.050000
0.550000 0.910000 0.050000
1.000000 0.920000 0.050000
0.040000 0.030000 0.410000
0.500000 0.040000 0.410000
0.960000 0.050000 0.410000
0.065000 0.465000 0.425000
0.525000 0.475000 0.425000
0.985000 0.485000 0.425000
0.090000 0.900000 0.440000
0.550000 0.910000 0.440000
1.000000 0.920000 0.440000
0.040000 0.030000 0.800000
0.500000 0.040000 0.800000
0.960000 0.050000 0.800000
0.065000 0.465000 0.815000
0.525000 0.475000 0.815000
0.985000 0.485000 0.815000
0.090000 0.900000 0.830000
0.550000 0.910000 0.830000
1.000000 0.920000 0.830000
